danpoynorcom/portfolio/static/portfolio/images/favicons/favicon.svg

<svg xmlns="http://www.w3.org/2000/svg" xml:space="preserve" width="1024" height="1024"><path fill="#9ACD32" d="M.5.5h1023v1023H.5z"/><path d="M1023 1v1022H1V1h1022m1-1H0v1024h1024V0z"/><path fill="#4C4C4C" d="M1024 1024H0V0h1024v1024zM512 48.086C255.787 48.086 48.086 255.787 48.086 512S255.787 975.914 512 975.914 975.914 768.213 975.914 512 768.213 48.086 512 48.086z"/><path d="M512 5.101C240.038 5.101 19.688 231.98 19.688 512S240.038 1018.899 512 1018.899 1004.312 792.02 1004.312 512 783.962 5.101 512 5.101zm0 948.392C275.571 953.493 83.213 755.434 83.213 512S275.57 70.507 512 70.507 940.787 268.566 940.787 512 748.43 953.493 512 953.493z"/><ellipse cx="341.551" cy="390.081" rx="80.113" ry="82.487"/><ellipse cx="682.117" cy="390.081" rx="80.113" ry="82.487"/><path fill="none" stroke="#000" stroke-linecap="round" stroke-linejoin="round" stroke-miterlimit="10" stroke-width="80" d="M739.471 667.574C687.366 733.186 604.864 775.56 512 775.56s-175.366-42.376-227.471-107.988"/></svg>

<svg enable-background="new 0 0 1024 1024" height="1024" width="1024" xmlns="http://www.w3.org/2000/svg"><path d="m1023 1v1022h-1022v-1022zm1-1h-1024v1024h1024z"/><circle cx="512" cy="512" fill="#9acd32" r="463.9"/><path d="m512 5.1c-272 0-492.3 226.9-492.3 506.9s220.3 506.9 492.3 506.9 492.3-226.9 492.3-506.9-220.3-506.9-492.3-506.9zm0 948.4c-236.4 0-428.8-198.1-428.8-441.5s192.4-441.5 428.8-441.5 428.8 198.1 428.8 441.5-192.4 441.5-428.8 441.5z"/><ellipse cx="341.6" cy="390.1" rx="80.1" ry="82.5"/><ellipse cx="682.1" cy="390.1" rx="80.1" ry="82.5"/><path d="m739.5 667.6c-52.1 65.6-134.6 108-227.5 108s-175.4-42.4-227.5-108" style="fill:none;stroke:#000;stroke-width:80;stroke-linecap:round;stroke-linejoin:round;stroke-miterlimit:10"/></svg>
